contributed-vectors/bang_dream_alt.svg

<svg xmlns="http://www.w3.org/2000/svg" width="192" height="192" fill="none"><g clip-path="url(#a)"><g clip-path="url(#b)"><path fill="#F8C18C" d="m122.4 8.5-.6 22.9c0 .6-.3 1.3-.7 1.7l-2.6 2.6c-.6.6-.9 1.3-1 2.1l-3.7 44.4c-.2 2.3 2 4.3 4.2 3.7l26.2-5.7c2.9-.8 5.3 2.4 3.8 5l-27.3 43.4c-.4.8-.6 1.7-.3 2.5l8.4 30.4c.7 3-2.6 5.4-5.2 3.7L103 149.7c-1.1-.7-2.6-.7-3.7 0l-51 33.7c-1.2.8-2.8.7-4-.2-1.4-1.1-1.7-3.2-.6-4.7L84.3 122c.7-1 .9-2.3.4-3.4l-9.5-19.1c-.9-1.9.2-4.1 2.1-4.7L98 90.2c1.3-.4 2.2-1.5 2.4-2.8l6.7-52.8c0-.1 0-.3-.1-.4l-1.2-1.5c-.6-.8-.7-1.8-.3-2.7l9.6-19.6.3-.3 6.3-2.1c.3-.1.7.2.7.5Z"/><path fill="#fff" d="m88.1 134.8 1.1 2.2c.2.3.4.5.8.6l2.4.4c.8.1 1.2 1.2.6 1.8l-1.8 1.7c-.2.2-.4.6-.3.9l.4 2.4c.1.8-.7 1.5-1.5 1.1l-2.2-1.1c-.3-.2-.7-.2-1 0l-2.2 1.1c-.8.4-1.6-.2-1.5-1.1l.4-2.4c.1-.3-.1-.7-.3-.9l-1.8-1.7c-.6-.6-.3-1.6.6-1.8l2.4-.4c.3 0 .6-.3.8-.6l1.1-2.2c.6-.8 1.7-.8 2 0ZM74.9 150.2l.6 1.1c.1.2.2.3.4.3l1.3.2c.4.1.6.6.3.9l-.9.9c-.1.1-.2.3-.2.5l.2 1.3c.1.4-.4.8-.8.6l-1.1-.6c-.2-.1-.3-.1-.5 0l-1.2.6c-.4.2-.9-.1-.8-.6l.2-1.3c0-.2 0-.4-.2-.5l-.9-.9c-.3-.3-.1-.9.3-.9l1.3-.2c.2 0 .3-.1.4-.3l.6-1.1c.2-.4.8-.4 1 0Z"/></g></g><defs><clipPath id="a"><path fill="#fff" d="M0 0h192v192H0z"/></clipPath><clipPath id="b"><path fill="#fff" d="M43 8h105.3v176H43z"/></clipPath></defs></svg>

<svg width="192" height="192" viewBox="0 0 192 192" fill="none" xmlns="http://www.w3.org/2000/svg">
<g clip-path="url(#clip0)">
<g clip-path="url(#clip1)">
<path d="M122.4 8.5L121.8 31.4C121.8 32 121.5 32.7 121.1 33.1L118.5 35.7C117.9 36.3 117.6 37 117.5 37.8L113.8 82.2C113.6 84.5 115.8 86.5 118 85.9L144.2 80.2C147.1 79.4 149.5 82.6 148 85.2L120.7 128.6C120.3 129.4 120.1 130.3 120.4 131.1L128.8 161.5C129.5 164.5 126.2 166.9 123.6 165.2L103 149.7C101.9 149 100.4 149 99.3 149.7L48.3 183.4C47.1 184.2 45.5 184.1 44.3 183.2C42.9 182.1 42.6 180 43.7 178.5L84.3 122C85 121 85.2 119.7 84.7 118.6L75.2 99.5C74.3 97.6 75.4 95.4 77.3 94.8L98 90.2C99.3 89.8 100.2 88.7 100.4 87.4L107.1 34.6C107.1 34.5 107.1 34.3 107 34.2L105.8 32.7C105.2 31.9 105.1 30.9 105.5 30L115.1 10.4C115.2 10.3 115.3 10.2 115.4 10.1L121.7 8C122 7.9 122.4 8.2 122.4 8.5Z" fill="#F8C18C"/>
<path d="M88.1 134.8L89.2 137C89.4 137.3 89.6 137.5 90 137.6L92.4 138C93.2 138.1 93.6 139.2 93 139.8L91.2 141.5C91 141.7 90.8 142.1 90.9 142.4L91.3 144.8C91.4 145.6 90.6 146.3 89.8 145.9L87.6 144.8C87.3 144.6 86.9 144.6 86.6 144.8L84.4 145.9C83.6 146.3 82.8 145.7 82.9 144.8L83.3 142.4C83.4 142.1 83.2 141.7 83 141.5L81.2 139.8C80.6 139.2 80.9 138.2 81.8 138L84.2 137.6C84.5 137.6 84.8 137.3 85 137L86.1 134.8C86.7 134 87.8 134 88.1 134.8Z" fill="white"/>
<path d="M74.9 150.2L75.5 151.3C75.6 151.5 75.7 151.6 75.9 151.6L77.2 151.8C77.6 151.9 77.8 152.4 77.5 152.7L76.6 153.6C76.5 153.7 76.4 153.9 76.4 154.1L76.6 155.4C76.7 155.8 76.2 156.2 75.8 156L74.7 155.4C74.5 155.3 74.4 155.3 74.2 155.4L73 156C72.6 156.2 72.1 155.9 72.2 155.4L72.4 154.1C72.4 153.9 72.4 153.7 72.2 153.6L71.3 152.7C71 152.4 71.2 151.8 71.6 151.8L72.9 151.6C73.1 151.6 73.2 151.5 73.3 151.3L73.9 150.2C74.1 149.8 74.7 149.8 74.9 150.2Z" fill="white"/>
</g>
</g>
<defs>
<clipPath id="clip0">
<rect width="192" height="192" fill="white"/>
</clipPath>
<clipPath id="clip1">
<rect width="105.3" height="176" fill="white" transform="translate(43 8)"/>
</clipPath>
</defs>
</svg>
